austria/municipalities/70628.svg

<?xml version="1.0" encoding="UTF-8"?>
<!DOCTYPE svg PUBLIC "-//W3C//DTD SVG 1.1//EN" "http://www.w3.org/Graphics/SVG/1.1/DTD/svg11.dtd">
<svg xmlns="http://www.w3.org/2000/svg" version="1.1" width="166px" height="197px" style="shape-rendering:geometricPrecision; text-rendering:geometricPrecision; image-rendering:optimizeQuality; fill-rule:evenodd; clip-rule:evenodd" xmlns:xlink="http://www.w3.org/1999/xlink">
<g><path style="opacity:1" fill="#000000" d="M -0.5,-0.5 C 54.8333,-0.5 110.167,-0.5 165.5,-0.5C 165.5,39.1667 165.5,78.8333 165.5,118.5C 159.643,150.546 142.309,174.379 113.5,190C 106.762,192.303 100.095,194.469 93.5,196.5C 86.1667,196.5 78.8333,196.5 71.5,196.5C 42.5721,189.429 21.4054,172.429 8,145.5C 4.36032,135.917 1.52699,126.251 -0.5,116.5C -0.5,77.5 -0.5,38.5 -0.5,-0.5 Z"/></g>
<g><path style="opacity:1" fill="#fefffe" d="M 140.5,73.5 C 137.5,73.5 134.5,73.5 131.5,73.5C 130.521,76.6248 130.187,79.9581 130.5,83.5C 127.167,83.5 123.833,83.5 120.5,83.5C 120.813,79.9581 120.479,76.6248 119.5,73.5C 116.167,73.5 112.833,73.5 109.5,73.5C 108.521,76.6248 108.187,79.9581 108.5,83.5C 105.5,83.5 102.5,83.5 99.5,83.5C 99.8128,79.9581 99.4794,76.6248 98.5,73.5C 95.1667,73.5 91.8333,73.5 88.5,73.5C 87.5206,76.6248 87.1872,79.9581 87.5,83.5C 84.1667,83.5 80.8333,83.5 77.5,83.5C 77.8128,79.9581 77.4794,76.6248 76.5,73.5C 73.5,73.5 70.5,73.5 67.5,73.5C 66.5206,76.6248 66.1872,79.9581 66.5,83.5C 63.1667,83.5 59.8333,83.5 56.5,83.5C 56.5,61.1667 56.5,38.8333 56.5,16.5C 52.2984,16.1832 48.2984,16.5166 44.5,17.5C 44.5,20.8333 44.5,24.1667 44.5,27.5C 41.1667,27.5 37.8333,27.5 34.5,27.5C 34.5,23.8333 34.5,20.1667 34.5,16.5C 30.8333,16.5 27.1667,16.5 23.5,16.5C 23.5,20.1667 23.5,23.8333 23.5,27.5C 20.1667,27.5 16.8333,27.5 13.5,27.5C 13.5,23.8333 13.5,20.1667 13.5,16.5C 9.83333,16.5 6.16667,16.5 2.5,16.5C 2.5,11.8333 2.5,7.16667 2.5,2.5C 55.5,2.5 108.5,2.5 161.5,2.5C 161.5,26.1667 161.5,49.8333 161.5,73.5C 158.167,73.5 154.833,73.5 151.5,73.5C 151.5,76.8333 151.5,80.1667 151.5,83.5C 148.167,83.5 144.833,83.5 141.5,83.5C 141.813,79.9581 141.479,76.6248 140.5,73.5 Z"/></g>
<g><path style="opacity:1" fill="#000000" d="M 44.5,17.5 C 48.2984,16.5166 52.2984,16.1832 56.5,16.5C 56.5,38.8333 56.5,61.1667 56.5,83.5C 59.8333,83.5 63.1667,83.5 66.5,83.5C 66.1872,79.9581 66.5206,76.6248 67.5,73.5C 67.5,77.1667 67.5,80.8333 67.5,84.5C 63.5,84.5 59.5,84.5 55.5,84.5C 55.5,62.1667 55.5,39.8333 55.5,17.5C 51.8333,17.5 48.1667,17.5 44.5,17.5 Z"/></g>
<g><path style="opacity:1" fill="#cb0000" d="M 44.5,27.5 C 44.5,24.1667 44.5,20.8333 44.5,17.5C 48.1667,17.5 51.8333,17.5 55.5,17.5C 55.5,39.8333 55.5,62.1667 55.5,84.5C 59.5,84.5 63.5,84.5 67.5,84.5C 67.5,80.8333 67.5,77.1667 67.5,73.5C 70.5,73.5 73.5,73.5 76.5,73.5C 76.5,77.1667 76.5,80.8333 76.5,84.5C 80.5,84.5 84.5,84.5 88.5,84.5C 88.5,80.8333 88.5,77.1667 88.5,73.5C 91.8333,73.5 95.1667,73.5 98.5,73.5C 98.5,77.1667 98.5,80.8333 98.5,84.5C 102.167,84.5 105.833,84.5 109.5,84.5C 109.5,80.8333 109.5,77.1667 109.5,73.5C 112.833,73.5 116.167,73.5 119.5,73.5C 119.5,77.1667 119.5,80.8333 119.5,84.5C 123.5,84.5 127.5,84.5 131.5,84.5C 131.5,80.8333 131.5,77.1667 131.5,73.5C 134.5,73.5 137.5,73.5 140.5,73.5C 140.5,77.1667 140.5,80.8333 140.5,84.5C 144.5,84.5 148.5,84.5 152.5,84.5C 152.5,81.1667 152.5,77.8333 152.5,74.5C 155.5,74.5 158.5,74.5 161.5,74.5C 161.667,89.837 161.5,105.17 161,120.5C 156.048,145.704 143.214,165.871 122.5,181C 87.2562,200.659 55.4228,196.159 27,167.5C 11.7752,150.837 3.77524,131.171 3,108.5C 2.50002,78.1685 2.33335,47.8352 2.5,17.5C 5.83333,17.5 9.16667,17.5 12.5,17.5C 12.5,21.1667 12.5,24.8333 12.5,28.5C 16.5,28.5 20.5,28.5 24.5,28.5C 24.5,24.8333 24.5,21.1667 24.5,17.5C 27.5,17.5 30.5,17.5 33.5,17.5C 33.5,21.1667 33.5,24.8333 33.5,28.5C 37.3714,28.815 41.0381,28.4816 44.5,27.5 Z"/></g>
<g><path style="opacity:1" fill="#000000" d="M 76.5,73.5 C 77.4794,76.6248 77.8128,79.9581 77.5,83.5C 80.8333,83.5 84.1667,83.5 87.5,83.5C 87.1872,79.9581 87.5206,76.6248 88.5,73.5C 88.5,77.1667 88.5,80.8333 88.5,84.5C 84.5,84.5 80.5,84.5 76.5,84.5C 76.5,80.8333 76.5,77.1667 76.5,73.5 Z"/></g>
<g><path style="opacity:1" fill="#000000" d="M 98.5,73.5 C 99.4794,76.6248 99.8128,79.9581 99.5,83.5C 102.5,83.5 105.5,83.5 108.5,83.5C 108.187,79.9581 108.521,76.6248 109.5,73.5C 109.5,77.1667 109.5,80.8333 109.5,84.5C 105.833,84.5 102.167,84.5 98.5,84.5C 98.5,80.8333 98.5,77.1667 98.5,73.5 Z"/></g>
<g><path style="opacity:1" fill="#000000" d="M 119.5,73.5 C 120.479,76.6248 120.813,79.9581 120.5,83.5C 123.833,83.5 127.167,83.5 130.5,83.5C 130.187,79.9581 130.521,76.6248 131.5,73.5C 131.5,77.1667 131.5,80.8333 131.5,84.5C 127.5,84.5 123.5,84.5 119.5,84.5C 119.5,80.8333 119.5,77.1667 119.5,73.5 Z"/></g>
<g><path style="opacity:1" fill="#000000" d="M 32.5,91.5 C 37.0615,91.6402 41.0615,93.1402 44.5,96C 46.8907,96.2868 49.2241,96.7868 51.5,97.5C 52.1924,98.0253 52.6924,98.6919 53,99.5C 55.7953,96.887 58.6286,96.887 61.5,99.5C 63.1303,98.102 64.9637,97.102 67,96.5C 70.3333,96.5 73.6667,96.5 77,96.5C 79.6667,93.8333 82.3333,93.8333 85,96.5C 86.923,95.6839 88.923,95.0172 91,94.5C 95.3886,96.1119 99.8886,97.2785 104.5,98C 101.752,101.612 98.0856,103.612 93.5,104C 96.1667,104 98.8333,104 101.5,104C 99.5448,104.953 97.8782,106.287 96.5,108C 96.8333,108.333 97.1667,108.667 97.5,109C 101.554,108.004 105.554,108.338 109.5,110C 107.122,110.511 104.788,111.178 102.5,112C 101.167,113 101.167,114 102.5,115C 104.527,115.498 106.527,115.331 108.5,114.5C 110.608,114.86 112.608,115.527 114.5,116.5C 113.975,117.192 113.308,117.692 112.5,118C 109.518,118.498 106.518,118.665 103.5,118.5C 103.33,119.822 103.663,120.989 104.5,122C 120.316,122.043 120.316,123.543 104.5,126.5C 104.153,130.793 105.82,131.793 109.5,129.5C 113.284,129.907 116.951,130.741 120.5,132C 114.851,132.757 109.184,133.257 103.5,133.5C 103.5,134.5 103.5,135.5 103.5,136.5C 120.578,138.83 120.244,140.164 102.5,140.5C 102.714,142.144 102.38,143.644 101.5,145C 106.457,146.489 111.457,147.822 116.5,149C 110.804,149.17 105.138,149.67 99.5,150.5C 95.6926,159.294 90.3593,166.961 83.5,173.5C 78.7913,160.121 70.1246,150.121 57.5,143.5C 66.9323,139.193 74.7656,132.86 81,124.5C 81.6667,123.5 81.6667,122.5 81,121.5C 72.2959,122.703 63.7959,124.536 55.5,127C 55.1667,126.667 54.8333,126.333 54.5,126C 56.9803,125.085 57.6469,123.585 56.5,121.5C 54.8647,120.319 53.198,120.319 51.5,121.5C 51.1667,121 50.8333,120.5 50.5,120C 51.2718,118.779 52.2718,117.779 53.5,117C 52.0439,116.577 51.5439,115.744 52,114.5C 55.6663,113.913 59.1663,112.746 62.5,111C 64.539,108.626 66.8723,106.626 69.5,105C 59.4743,105.355 49.8076,103.688 40.5,100C 36.9295,97.9322 34.2629,95.0988 32.5,91.5 Z"/></g>
<g><path style="opacity:1" fill="#fefffe" d="M 71.5,108.5 C 76.4224,108.11 76.7557,109.277 72.5,112C 70.8333,112.667 69.1667,112.667 67.5,112C 69.3187,111.26 70.6521,110.093 71.5,108.5 Z"/></g>
<g><path style="opacity:1" fill="#fefffe" d="M -0.5,116.5 C 1.52699,126.251 4.36032,135.917 8,145.5C 21.4054,172.429 42.5721,189.429 71.5,196.5C 47.5,196.5 23.5,196.5 -0.5,196.5C -0.5,169.833 -0.5,143.167 -0.5,116.5 Z"/></g>
<g><path style="opacity:1" fill="#fefffe" d="M 165.5,118.5 C 165.5,144.5 165.5,170.5 165.5,196.5C 141.5,196.5 117.5,196.5 93.5,196.5C 100.095,194.469 106.762,192.303 113.5,190C 142.309,174.379 159.643,150.546 165.5,118.5 Z"/></g>
</svg>

<svg xmlns="http://www.w3.org/2000/svg" width="166" height="197" style="shape-rendering:geometricPrecision;text-rendering:geometricPrecision;image-rendering:optimizeQuality;fill-rule:evenodd;clip-rule:evenodd"><path style="opacity:1" d="M-.5-.5h166v119c-5.857 32.046-23.191 55.879-52 71.5a687.313 687.313 0 0 1-20 6.5h-22c-28.928-7.071-50.095-24.071-63.5-51-3.64-9.583-6.473-19.249-8.5-29V-.5z"/><path style="opacity:1" fill="#fefffe" d="M140.5 73.5h-9c-.979 3.125-1.313 6.458-1 10h-10c.313-3.542-.021-6.875-1-10h-10c-.979 3.125-1.313 6.458-1 10h-9c.313-3.542-.02-6.875-1-10h-10c-.98 3.125-1.313 6.458-1 10h-10c.313-3.542-.02-6.875-1-10h-9c-.98 3.125-1.313 6.458-1 10h-10v-67c-4.202-.317-8.202.017-12 1v10h-10v-11h-11v11h-10v-11h-11v-14h159v71h-10v10h-10c.313-3.542-.021-6.875-1-10z"/><path style="opacity:1" d="M44.5 17.5c3.798-.983 7.798-1.317 12-1v67h10c-.313-3.542.02-6.875 1-10v11h-12v-67h-11z"/><path style="opacity:1" fill="#cb0000" d="M44.5 27.5v-10h11v67h12v-11h9v11h12v-11h10v11h11v-11h10v11h12v-11h9v11h12v-10h9c.167 15.337 0 30.67-.5 46-4.952 25.204-17.786 45.371-38.5 60.5-35.244 19.659-67.077 15.159-95.5-13.5-15.225-16.663-23.225-36.329-24-59-.5-30.332-.667-60.665-.5-91h10v11h12v-11h9v11c3.871.315 7.538-.018 11-1z"/><path style="opacity:1" d="M76.5 73.5c.98 3.125 1.313 6.458 1 10h10c-.313-3.542.02-6.875 1-10v11h-12v-11zM98.5 73.5c.98 3.125 1.313 6.458 1 10h9c-.313-3.542.021-6.875 1-10v11h-11v-11zM119.5 73.5c.979 3.125 1.313 6.458 1 10h10c-.313-3.542.021-6.875 1-10v11h-12v-11zM32.5 91.5c4.562.14 8.562 1.64 12 4.5 2.39.287 4.724.787 7 1.5a4.452 4.452 0 0 1 1.5 2c2.795-2.613 5.629-2.613 8.5 0a14.815 14.815 0 0 1 5.5-3h10c2.667-2.667 5.333-2.667 8 0a40.19 40.19 0 0 1 6-2 70.81 70.81 0 0 0 13.5 3.5c-2.748 3.612-6.414 5.612-11 6h8a14.506 14.506 0 0 0-5 4l1 1c4.054-.996 8.054-.662 12 1a54.628 54.628 0 0 0-7 2c-1.333 1-1.333 2 0 3 2.027.498 4.027.331 6-.5a20.64 20.64 0 0 1 6 2 4.457 4.457 0 0 1-2 1.5 40.914 40.914 0 0 1-9 .5c-.17 1.322.163 2.489 1 3.5 15.816.043 15.816 1.543 0 4.5-.347 4.293 1.32 5.293 5 3a48.208 48.208 0 0 1 11 2.5 188.576 188.576 0 0 1-17 1.5v3c17.078 2.33 16.744 3.664-1 4 .214 1.644-.12 3.144-1 4.5a249.034 249.034 0 0 0 15 4c-5.696.17-11.362.67-17 1.5-3.807 8.794-9.14 16.461-16 23-4.709-13.379-13.375-23.379-26-30 9.432-4.307 17.266-10.64 23.5-19 .667-1 .667-2 0-3a172.255 172.255 0 0 0-25.5 5.5l-1-1c2.48-.915 3.147-2.415 2-4.5-1.635-1.181-3.302-1.181-5 0l-1-1.5a9.564 9.564 0 0 1 3-3c-1.456-.423-1.956-1.256-1.5-2.5a34.12 34.12 0 0 0 10.5-3.5 29.97 29.97 0 0 1 7-6c-10.026.355-19.692-1.312-29-5-3.57-2.068-6.237-4.901-8-8.5z"/><path style="opacity:1" fill="#fefffe" d="M71.5 108.5c4.922-.39 5.256.777 1 3.5-1.667.667-3.333.667-5 0 1.819-.74 3.152-1.907 4-3.5zM-.5 116.5c2.027 9.751 4.86 19.417 8.5 29 13.405 26.929 34.572 43.929 63.5 51h-72v-80zM165.5 118.5v78h-72a687.313 687.313 0 0 0 20-6.5c28.809-15.621 46.143-39.454 52-71.5z"/></svg>
